X:1
T:The Jelly Roll Blues
T:THE JELLY ROLL BLUES
T:“The Original Jelly Roll”
T:FERD. MORTON.
T:Public Domain
T:Public Domain
T:Public Domain
T:Public Domain
T:Public Domain
C:Ferdinand Jelly Roll Morton
Z:Public Domain
%%score { ( 1 4 ) | ( 2 3 ) }
L:1/8
Q:1/4=140
M:4/4
K:Bb
V:1 treble nm="Piano" snm="Pno."
V:4 treble 
V:2 treble 
V:3 treble 
V:1
"^Tempo di Blues"!f! z3/2!8va(! _g'<_d'b/ _g>d'b>g!8va)! | z3/2 _g<_d!>(!B/ _G>dB>G!>)! | %2
 z3/2!<(! _D<_GB/!<)! [Ee]>[_D_d][Ee]>[=E=e] | [Ff]2 z2!8va(! !^![fac'f']!8va)! z z2 |: %4
!mf!!<(! (3(.[dfb].[dfb].[dfb]) .[dfb] z (3(.[Bdg].[Bdg]!<)!.[Bdg]) .[Bdg] z | %5
!>(! (3(.[Bdf].[Bdf].[Bdf]) .[Bdf] z .[Bdg]!>)! z (!>!^C2 | D) z (!>!G>!>(!F ^C>D B,2)!>)! | %7
 (!>!G>!>(!F ^C>D B,2)!>)!!<(! =C2!<)! |!<(! [B,EG]2 [EGB]2 [EGB]4!<)! | %9
!<(! [B,EG]2 [EGB]2 [EGB]4!<)! |!<(! z2 [B,DF]2 z2 [B,DF]2!<)! | %11
 z2!>(! [B,DF]2 !tenuto![B,F]2 !tenuto![B,=E]2!>)! | %12
 !tenuto![A,_E]4!<(! (G,/^G,/A,/C/ B,>)!<)!(=G, | [A,E]2) (!>![=EB^c]>d) (3([EB]=cB) [_Ec]>A | %14
 [DB]2 (!>![=EB^c]>d) (3([EB]=cB) [_Ec]>A |1!<(! [DB]2 z !>![Ff] !>![Ff]2!<)! !>![Gg]!>![Aa] :|2 %16
 [DB]2!<(! !trill(!Tf4- !trill)!f2!<)! |: !^![dfbd']!<(! z !trill(!Tf4- !trill)!f2!<)! | %18
 !^![c^fad'] z!<(! !trill(!T^f4- !trill)!f2!<)! | !^![dgbd'] z z2 !^![c^fac'] z z2 | %20
 (b d'2) (b d'2) (bc') | z3/2 (^c<d)(B/ =c>)(B^F>G) | z3/2 (^c<d)(B/ =c>)(B^F>G) | %23
 z2 (3(fgf) (3(dfd)!>(! (3(BdB) | (3(FBF) (3(DFD)!>)! (3(B,!<(!DF) (AG)!<)! | %25
!>(! [A,_EG]2 [A,E_G][A,EF]- [A,EF]2!>)! !^![F=Bd=g] z | z2 (!>![=EB^c]>d) (3([EB]=cB) [_Ec]>A | %27
 [DB]2 (!>![=EB^c]>d) (3([EB]=cB) [_Ec]>A |1 [DB]2!<(! !trill(!Tf4- !trill)!f2!<)! :|2 %29
 [DB]2!<(! z !>![Ff] !>![Ff]2 !>![Gg]!<)!!>![Aa] |: %30
!mf! !>![Bb]>!8va(!([f'b'] [=e'b']>[_e'b']!>(! [d'b']>)!8va)!([fb] [=eb]>[_eb]!>)! | %31
 [db]>)!>(!([FB] [=EB]>[_EB] [DB]>)!>)!!<(!([DB][EB]>[=EB] | %32
 [FB]>)!<)!!<(!([DB][_EB]>[=EB] [FB]>)!<)!!<(!([DB][_EB]>[=EB] | %33
 [FB]>)!<)!!<(!([DB][_EB]>[=EB] [FB]2)!<)! !^![B,D_A] z | %34
!<(! [B,_EG][=A,E^F] [B,EG][B,EGB]-!<)! [B,EGB]2 !tenuto![CEGc]2 | %35
 (3(_dcB) (3(dcB)!>(! (3(dcB) !tenuto![_DG]2!>)! |!<(! (B2 c>B)!<)!!>(! (3_dcB !tenuto![_DG]2!>)! | %37
 !tenuto![=DB]2!<(! (3(B,CD)!<)! (A2 G2) |!>(! [A,_EG]2 [A,E_G][A,EF]- [A,EF]2!>)! !^![F=Bd=g] z | %39
 z2 (!>![=EB^c]>d) (3([EB]=cB) [_Ec]>A | [DB]2 (!>![=EB^c]>d) (3([EB]=cB) [_Ec]>A |1 %41
 [DB]2 z!<(! !>![Ff] !>![Ff]2 !>![Gg]!>![Aa]!<)! :|2!<(! (([DB]4 !^![Bdfb]))!<)! z z2 || %43
[K:Eb][M:4/4]"^TRIO."!mf! z2!<(! B,!^!C- CDEF!<)! | z2!<(! B,!^!C- CDEF!<)! | %45
 z (B!>(!A).=E (GF).D!>)!.C |!<(! B,4!<)! !^![B,DFB] z z2 |:!f! z [Bef]^F!^!G- G[Be=f]^FG | %48
 z [=Bdf]^F!^!G- G[Bd=f]^FG | z [_df][ce]!^!G- G[df][ce]G | z [_df][ce]!^!G- G[df][ce]G | %51
 z [_df][ce]!^!A- A[df][ce]A | z!>(! (ec=A ^FEC=A,)!>)! | z!<(! GB^F!<)! G (!>!d2 c) | %54
 z!<(! GB^F!<)! G (!>!d2 c) | z [_Ac][GB]!^!D- D[GB][=FA]D | %56
 z2 ([=A,E^F]>G) (3([A,E]=FE)!>(! [_A,F]>D!>)! |1 %57
 [G,E]!>![Bb] !>![=A=a]!<(!!>![Bb] !>![cc']!>![=B=b] !>![cc']!>![^c^c']!<)! | %58
 !>![dd']!>![Bb] !>![=A=a]!>![Bb] !>![cc']!>![dd'] !>![ee']!>![ff'] :|2 %59
 [G,E]!>![Bb]!<(! !>![=A=a]!>![Bb] !>![=B=b]!>![cc']!<)! !>![^c^c']!>![dd'] | %60
!>(! !>![ee'] !>![cc']2 !>![Bb] !>![Gg]2!>)! z2 |] %61
V:2
 !>![B_d_g]4 !>![_GB_d]4 |[K:bass] !>![B,_D_G]4 !>![_G,B,_D]4 | %2
 !^![_G,,_G,]4- [G,,G,]2 !>![_G,B,_D]2 | !>![F,=A,C]2 z2 !^![F,,F,] z z2 |: %4
"^L.H"[I:staff -1] (B4 G4 | F4 G)[I:staff +1] z (!>!^C,2 | D,) z (!>!G,>F, ^C,>D, B,,2) | %7
 (!>!G,>F, ^C,>D, B,,2) [_A,,E,]2 | [E,,E,]8 | [E,,E,]8 | (3(G,,A,,B,,) z2 (3(C,^C,=D,) z2 | %11
 (3(E,=E,F,) z2 !tenuto![D,F,]2 !tenuto![_D,G,]2 | !tenuto![C,F,]4 [F,,F,]4 | %13
 [C,F,]2 ((!>![C,G,]2 [C,_G,]2)) [F,,F,]2 | [B,,F,]2 ((!>![C,G,]2 [C,_G,]2)) [F,,F,]2 |1 %15
 [B,,F,]2 z2 z4 :|2 [B,,F,]2 z2 z4 |:!f! !arpeggio!!^![B,,F,D] z z2 z4 | %18
 !arpeggio!!^![D,,A,,^F,] z z2 z4 | !arpeggio!!^![G,,D,B,] z z2 !arpeggio!!^![D,,A,,^F,] z z2 | %20
 (=F, B,2) (F, _A,2) (F,^F,) | !^![E,G,]2 [G,B,E]2 [B,,B,]2 [G,B,E]2 | %22
 !^![E,G,]2 [G,B,E]2 [B,,B,]2 [G,B,E]2 | !^![B,,,B,,] z z2 z4 | z4 z2 !tenuto![_D,,_D,]2 | %25
 [C,,C,]4 F,,2 !arpeggio!!^![G,,D,=B,] z | (!^![C,-G,]4 [C,_G,]2) [F,,F,]2 | %27
 [B,,F,]2 (!>![C,-G,]2 [C,_G,]2) [F,,F,]2 |1 [B,,F,]2 z2 z4 :|2 [B,,F,]2 z2 z4 |: %30
 z3/2[I:staff -1] (_A<G_G/ F>)(_A =G>_G | F>)[I:staff +1](_A, G,>_G, F,>)(F,G,>=G, | %32
 _A,>)(F,_G,>=G, A,>)(F,_G,>=G, | _A,>)(F,_G,>=G, A,2) !^![B,,F,] z | [E,,E,]4 B,,4 | %35
 [E,,E,]4 (([E,,E,]2 [=E,,=E,]2)) | [B,,F,]4 (([E,,E,]2 [=E,,=E,]2)) | %37
 !tenuto![B,,F,]4 !tenuto![_D,,_D,]4 | [C,,C,]4 F,,2 !arpeggio!!^![G,,D,=B,] z | %39
 (!^![C,-G,]4 [C,_G,]2) [F,,F,]2 | [B,,F,]2 (!>![C,-G,]2 [C,_G,]2) [F,,F,]2 |1 [B,,F,]2 z2 z4 :|2 %42
 !^![B,,B,]2 !^![F,,F,]2 !^![B,,,B,,] z z2 ||[K:Eb][M:4/4] !^![B,,D,A,]8 | !^![B,,E,G,]8 | %45
 !^![B,,D,A,]8- | [B,,D,A,]4 !^![B,,,B,,] z z2 |: %47
 !^![E,,B,,E,]3 !^![G,B,E]- [G,B,E]2 ((!>![^C,B,]2 | %48
 !^![D,=B,]3)) !^![G,=B,F]- [G,B,F]2 ((!>![=A,,=A,]2 | %49
 !^![_B,,_B,]3)) !^![E,G,_D]- [E,G,D]2 ((!>![=A,,=A,]2 | %50
 !^![B,,B,]3)) !^![E,G,_D]- [E,G,D]2 !>![E,,E,]2 | !^!A,,3 !^![E,A,C]- [E,A,C]2 !>![E,,E,]2 | %52
 z (C,,E,,^F,, =A,,C,E,^F,) | !^![B,,G,]3 !^![G,B,E]- [G,B,E]2 ((!>![=A,,^F,]2 | %54
 !^![B,,G,]3)) !^![G,B,E]- [G,B,E]2 ((!>![=A,,^F,]2 | %55
 !^![B,,=F,]3)) !^![F,_A,B,]- [F,A,B,]2 !>!B,,2 | ((!^![F,,C,]4 [F,,_C,]2)) [B,,,B,,]2 |1 %57
"^cresc." [E,,B,,]3 !^![G,B,E]- [G,B,E]2 (((!>![B,,=E,G,]2 | %58
 [B,,F,A,]3))) !^![A,B,D]- [A,B,D]2 !>![B,,,B,,]2 :|2 [E,,B,,]3 !^![A,B,D]- [A,B,D]2 [B,,B,]2 | %60
 [E,,E,]4 !>![E,B,]2 z2 |] %61
V:3
 x8 |[K:bass] x8 | x8 | x8 |: x8 | x8 | x8 | x8 | z2 (B,<C) (B,<_D) (B,<C) | %9
 z2 (B,<C) (B,<_D) (B,<C) | x8 | x8 | x8 | x8 | x8 |1 x8 :|2 x8 |: x8 | x8 | x8 | %20
 B,,3 B,,- B,,2 B,,2 | x8 | x8 | x8 | x8 | x8 | x8 | x8 |1 x8 :|2 x8 |: x8 | x8 | x8 | x8 | x8 | %35
 x8 | x8 | x8 | x8 | x8 | x8 |1 x8 :|2 x8 ||[K:Eb][M:4/4] x8 | x8 | x8 | x8 |: x8 | x8 | x8 | x8 | %51
 x8 | x8 | x8 | x8 | x8 | x8 |1 x8 | x8 :|2 x8 | x8 |] %61
V:4
 x3/2!8va(! x13/2!8va)! | x8 | x8 | x4!8va(! x!8va)! x3 |: x8 | x8 | x8 | x8 | x8 | x8 | x8 | x8 | %12
 x8 | x8 | x8 |1 x8 :|2 x8 |: x8 | x8 | x8 | [d=f]3 [df]- [df]2 ([d-f][d_a]) | x8 | x8 | x8 | %24
 x4 x2 !tenuto![B,=E]2 | x8 | x8 | x8 |1 x8 :|2 x8 |: x3/2!8va(! x4!8va)! x5/2 | x8 | x8 | x8 | %34
 x8 | !tenuto![_DGB]2 !tenuto![DGB]2 !tenuto![DGB]2 x2 | !tenuto!=D4 !tenuto![_DGB]2 x2 | %37
 x4 [B,=E]4 | x8 | x8 | x8 |1 x8 :|2 x8 ||[K:Eb][M:4/4] x8 | x8 | x8 | x8 |: x8 | x8 | x8 | x8 | %51
 x8 | x8 | x4 G !>![E=A]3 | x4 G !>![E=A]3 | x8 | x8 |1 x8 | x8 :|2 x8 | x8 |] %61

